X:138
T:You People Who Now Are Baptized
%%stretchlast false
M:4/4
L:1/4
K:F clef=C1
"^i"[Fc] "^vi"[DAdf] "^iv"[FBcf] "^iii¹"[CAea] | "^v"[Dcdg] "^IVmaj7"[B,Adf] "^V"[CGeg] [FGcg] | "^I"[Fca] "^vi"[DFda] [DAdf] "^I"[FAcf] | "^vi"[DAda] "^V"[EFcb] [FGcc'] "^I²"[CFca] | [CFcg]/ "^V"[CEcg]/4 [CDcg]/4 "^V¹"[EFcg] "^i"[Fcf]/ [FGcf]/ "^I"[FAcf] | "^vi"[Dd] "^I"[FAcf] "^V"[CBef] "^vi"[DAda] | "^ii¹"[B,cdg] "^Imaj7²"[CAef] "^i"[FGcg] [FGcg] | "^vi"[DFda]2 "^I"[FAcf] "^vi"[DAdf] | "^iii²"[EAca] "^iv"[Fcb] [CGcc'] "^I²"[CFca] | "^i"[Fcg]/ "^V¹"[EFcg]/4 [DFcg]/4 [EFcg] "^i"[Fcf]/ [FGcf]/ "^vi"[DAf] | "^vii¹"[G,e] "^IV7"[B,Ada] "^iii¹"[CAca] "^ii²"[DABg] | "^iv"[B,Bf] "^I"[FGAe] [FAf] "^vi¹"[F,FAd] | "^i"[F,Fc] "^IV"[B,Fcd] "^i"[F,c] [CFc] | "^vi"[DAf] "^IV"[B,Bdf] "^III+"[A,A_df] "^III7"[A,G_de] | "^vi"[DFAf] "^ii"[Ddg] "^Imaj7³"[EFca] "^iii7²"[EGga] | "^vii"[EFfg] "^I"[FAf] "^iii¹"[CAea]/ [CAda]/ "^V"[Cdeb] | "^i"[F,cc'] "^I"[F,ca] "^i"[F,cg]2 | "^I¹"[Af]4 |]
